X:43
T:Hardiman the Fiddler
R:slip jig
Z:id:hn-slipjig-43
M:9/8
K:G
dBG GDG G2e|dBG GBd gfe|dBG GDG GAB|cAG FGA cBA:|
|:GBd ded d2B|GBd dBd gdB|GBd ded d2B|cAG FGA cBA:|
